dist/img/advantages/img-04.svg

<svg width="81" height="81" viewBox="0 0 81 81" fill="none" xmlns="http://www.w3.org/2000/svg">
<rect width="80" height="80" transform="translate(0.5 0.515625)" fill="white"/>
<path d="M62.7348 39.6741C62.7348 39.6741 53.0578 34.6503 48.3634 25.5498C43.669 16.4493 35.9274 9.57239 26.8269 11.5078C17.7263 13.4432 13.032 29.8324 18.8382 29.8324C24.6444 29.8324 23.8208 34.8562 23.8208 34.8562C23.8208 34.8562 12.2496 44.945 14.0202 54.2514C15.7909 63.599 27.3622 71.9171 38.2746 68.6228C49.187 65.4109 78.1768 49.2688 62.7348 39.6741Z" fill="#F15D4F"/>
<path d="M43.7109 55.6534C60.6766 48.7354 41.9402 37.6995 35.681 33.5816C29.4218 29.4225 20.5272 30.0402 20.5272 30.0402C24.4804 30.905 23.8215 34.8993 23.8215 34.8993C23.8215 34.8993 19.9919 38.2348 17.1094 42.8056C22.0097 42.6821 26.7452 62.5303 43.7109 55.6534Z" fill="#F47E69"/>
<path d="M40.4976 51.6124C43.1585 51.6124 45.3155 49.4553 45.3155 46.7945C45.3155 44.1336 43.1585 41.9766 40.4976 41.9766C37.8367 41.9766 35.6797 44.1336 35.6797 46.7945C35.6797 49.4553 37.8367 51.6124 40.4976 51.6124Z" fill="#E6E7E8"/>
<path d="M40.501 50.0098C42.2749 50.0098 43.713 48.5718 43.713 46.7979C43.713 45.024 42.2749 43.5859 40.501 43.5859C38.7271 43.5859 37.2891 45.024 37.2891 46.7979C37.2891 48.5718 38.7271 50.0098 40.501 50.0098Z" fill="#414042"/>
<path d="M62.7324 39.6752C62.7324 39.6752 58.2028 37.328 53.879 32.9219C53.879 32.9219 57.6674 38.7693 60.7147 41.94C63.7619 45.1108 65.8208 49.1463 50.667 59.1939C35.4721 69.2416 19.1652 65.8237 14.4297 55.7349C17.0651 64.4237 27.9775 71.7535 38.3134 68.6239C49.1846 65.412 78.1745 49.2699 62.7324 39.6752Z" fill="#DB5447"/>
</svg>

<svg width="81" height="81" fill="none" xmlns="http://www.w3.org/2000/svg"><path fill="#fff" d="M.5.516h80v80H.5z"/><path d="M62.735 39.674S53.058 34.65 48.363 25.55c-4.694-9.1-12.436-15.978-21.536-14.042-9.1 1.935-13.795 18.324-7.989 18.324s4.983 5.024 4.983 5.024-11.571 10.089-9.8 19.395c1.77 9.348 13.341 17.666 24.254 14.372 10.912-3.212 39.902-19.354 24.46-28.949z" fill="#F15D4F"/><path d="M43.71 55.653c16.967-6.918-1.77-17.953-8.029-22.071-6.26-4.16-15.154-3.542-15.154-3.542 3.953.865 3.294 4.86 3.294 4.86s-3.83 3.335-6.712 7.906c4.9-.124 9.636 19.724 26.602 12.847z" fill="#F47E69"/><path d="M40.498 51.612a4.818 4.818 0 100-9.635 4.818 4.818 0 000 9.635z" fill="#E6E7E8"/><path d="M40.501 50.01a3.212 3.212 0 100-6.424 3.212 3.212 0 000 6.424z" fill="#414042"/><path d="M62.732 39.675s-4.53-2.347-8.853-6.753c0 0 3.788 5.847 6.836 9.018 3.047 3.17 5.106 7.206-10.048 17.254-15.195 10.048-31.502 6.63-36.237-3.46 2.635 8.69 13.547 16.02 23.883 12.89 10.872-3.212 39.861-19.354 24.42-28.949z" fill="#DB5447"/></svg>
